X: 0943
T: GEN. KNOX'S MARCH
B: Oliver Ditson "The Boston Collection of Instrumental Music" 1910 p.94 #3
F: http://conquest.imslp.info/files/imglnks/usimg/8/8f/IMSLP175643-PMLP309456-bostoncollection00bost_bw.pdf
%: 2012 John Chambers <jc:trillian.mit.edu>
M: 4/4
L: 1/8
K: C
(3GAB |\
c2c>c c2 (3def | e2e>e e2 (3fga |\
g2e>c g3e>c | a2g>g g2f/e/d/c/ |\
d2d>d d2g/f/e/d/ | e2c>c c2e2 |\
dcBc B2A2 | G2G>G G2 :|
|: G/A/B/c/ |\
d2d>d d2G/B/c/d/ | e2e>e e2de |\
gfed fedc | d2d>d d2c/d/e/f/ |\
g2e>g f2d>f | e2c>e d2c/d/e/f/ |
(3gec (3gec (3fdB (3fdB | (3ecG (3ecG d2 (3GAB |\
c2c>c c2 (3def | e2e>e e2 (3fga |\
(3gc'b (3agf e2d2 | c2c>c c2 :|

%%sep 1 1 500
%%sep 1 1 500
